svg/color/vgx.svg

<svg xmlns="http://www.w3.org/2000/svg" fill="none" viewBox="0 0 2000 2000"><g clip-path="url(#vgx_svg-a)"><path fill="url(#vgx_svg-b)" d="M1000 2000c552.28 0 1000-447.72 1000-1000C2000 447.715 1552.28 0 1000 0 447.715 0 0 447.715 0 1000c0 552.28 447.715 1000 1000 1000"/><mask id="vgx_svg-c" width="2000" height="2000" x="0" y="0" maskUnits="userSpaceOnUse" style="mask-type:luminance"><path fill="#fff" d="M1000 2000c552.28 0 1000-447.72 1000-1000C2000 447.715 1552.28 0 1000 0 447.715 0 0 447.715 0 1000c0 552.28 447.715 1000 1000 1000"/></mask><g mask="url(#vgx_svg-c)"><path fill="url(#vgx_svg-d)" d="M1423 0h1066l1 2100-2116-13z"/></g><path stroke="#fff" stroke-width="51.947" d="m978 1668 1 2c4 10 11 14 25 14h1c14 0 21-4 25-14l1-2 558-1092h-244c-15 0-21 3-22 8l-1 3-318 620-318-619-1-2c-2-8-5-9-22-9H420z"/><path fill="#fff" d="M1174 550c-22 0-29 3-39 23l-241 473-241-473c-5-18-17-13-39-13H410c-10 0-20 11-18 18l462 907c7 16 20 25 40 25h1c20 0 34-8 40-25l463-912c3-7 3-12 0-16s-10-7-18-7z"/></g><defs><linearGradient id="vgx_svg-b" x1="0" x2="0" y1="418" y2="1800" gradientUnits="userSpaceOnUse"><stop stop-color="#5B62FE"/><stop offset="1" stop-color="#3831AB"/></linearGradient><linearGradient id="vgx_svg-d" x1="0" x2="0" y1="1010.85" y2="1004.08" gradientUnits="userSpaceOnUse"><stop stop-color="#1F1B55" stop-opacity=".98"/><stop offset="1" stop-color="#493ED1"/></linearGradient><clipPath id="vgx_svg-a"><path fill="#fff" d="M0 0h2000v2000H0z"/></clipPath></defs></svg>

<svg viewBox="0 0 2000 2000" fill="none" xmlns="http://www.w3.org/2000/svg">
<g clip-path="url(#clip0_1494_170117)">
<path d="M1000 2000C1552.28 2000 2000 1552.28 2000 1000C2000 447.715 1552.28 0 1000 0C447.715 0 0 447.715 0 1000C0 1552.28 447.715 2000 1000 2000Z" fill="url(#paint0_linear_1494_170117)"/>
<mask id="mask0_1494_170117" style="mask-type:luminance" maskUnits="userSpaceOnUse" x="0" y="0" width="2000" height="2000">
<path d="M1000 2000C1552.28 2000 2000 1552.28 2000 1000C2000 447.715 1552.28 0 1000 0C447.715 0 0 447.715 0 1000C0 1552.28 447.715 2000 1000 2000Z" fill="white"/>
</mask>
<g mask="url(#mask0_1494_170117)">
<path d="M1423 0H2489L2490 2100L374 2087L1423 0Z" fill="url(#paint1_linear_1494_170117)"/>
</g>
<path d="M978 1668L979 1670C983 1680 990 1684 1004 1684H1005C1019 1684 1026 1680 1030 1670L1031 1668L1589 576H1345C1330 576 1324 579 1323 584L1322 587L1004 1207L686 588L685 586C683 578 680 577 663 577H420L978 1668Z" stroke="white" stroke-width="51.947"/>
<path d="M1174 550C1152 550 1145 553 1135 573L894 1046L653 573C648 555 636 560 614 560H410C400 560 390 571 392 578L854 1485C861 1501 874 1510 894 1510H895C915 1510 929 1502 935 1485L1398 573C1401 566 1401 561 1398 557C1395 553 1388 550 1380 550H1174Z" fill="white"/>
</g>
<defs>
<linearGradient id="paint0_linear_1494_170117" x1="0" y1="418" x2="0" y2="1800" gradientUnits="userSpaceOnUse">
<stop stop-color="#5B62FE"/>
<stop offset="1" stop-color="#3831AB"/>
</linearGradient>
<linearGradient id="paint1_linear_1494_170117" x1="6.34653e-06" y1="1010.85" x2="6.34653e-06" y2="1004.08" gradientUnits="userSpaceOnUse">
<stop stop-color="#1F1B55" stop-opacity="0.98"/>
<stop offset="1" stop-color="#493ED1"/>
</linearGradient>
<clipPath id="clip0_1494_170117">
<rect width="2000" height="2000" fill="white"/>
</clipPath>
</defs>
</svg>
